X: 40757
T: Touching Cloth
R: reel
M: 4/4
K: Dmajor
|:ADFA ~B2dB|ABdf efdB|~A2FA ~B2ef|(3gfe fd edBd
ADFA ~B2dB|ABdf e2 fg|af (3fff efdB|ABdf efdB:|
|:Adfd edfd|Adfd ed (3Bcd|Adfd ~e2 ef|gefd edBd|
Adfd edfd|Adfd e2 fg|afge (3fed eB|ABdf efdB:|

